Sources/FrostedUI/Resources/Icons.xcassets/peoplePlus16.imageset/people-plus-16.svg

<svg width="16" height="16" viewBox="0 0 16 16" fill="none" xmlns="http://www.w3.org/2000/svg" data-fui-icon="true">
  <path
    d="M11.877 5.25C13.5598 5.25019 15.0149 6.29217 15.541 7.7832L15.6318 8.07617C15.71 8.37419 15.75 8.68478 15.75 9C15.75 9.41421 15.4142 9.75 15 9.75C14.5858 9.75 14.25 9.41421 14.25 9C14.25 8.74792 14.2071 8.50726 14.1289 8.28906L14.1279 8.28516L14.0635 8.12305C13.7087 7.32688 12.8735 6.75017 11.877 6.75C10.9766 6.75 10.2047 7.22609 9.80371 7.90918C10.1198 8.22866 10.4012 8.58423 10.6387 8.9707C10.8555 9.32358 10.7454 9.78508 10.3926 10.002C10.0397 10.2188 9.5782 10.1087 9.36133 9.75586C8.63213 8.5691 7.39835 7.79222 6.00488 7.75195L5.72461 7.75391C3.54379 7.84498 1.75 9.87441 1.75 12.3457C1.75 12.8843 2.15302 13.25 2.56836 13.25H9.25488C9.6691 13.25 10.0049 13.5858 10.0049 14C10.0049 14.4142 9.6691 14.75 9.25488 14.75H2.56836C1.24996 14.75 0.250002 13.6361 0.25 12.3457C0.25 9.21335 2.54231 6.38516 5.66211 6.25488C6.73918 6.20976 7.74636 6.48324 8.6123 6.98535C9.30397 5.93569 10.5152 5.25 11.877 5.25ZM13 9.25C13.4142 9.25 13.75 9.58579 13.75 10V11.25H15C15.4142 11.25 15.75 11.5858 15.75 12C15.75 12.4142 15.4142 12.75 15 12.75H13.75V14C13.75 14.4142 13.4142 14.75 13 14.75C12.5858 14.75 12.25 14.4142 12.25 14V12.75H11C10.5858 12.75 10.25 12.4142 10.25 12C10.25 11.5858 10.5858 11.25 11 11.25H12.25V10C12.25 9.58579 12.5858 9.25 13 9.25ZM6 0.25C7.51878 0.25 8.75 1.48122 8.75 3C8.75 4.51878 7.51878 5.75 6 5.75C4.48122 5.75 3.25 4.51878 3.25 3C3.25 1.48122 4.48122 0.25 6 0.25ZM12 1.25C12.9665 1.25 13.75 2.0335 13.75 3C13.75 3.9665 12.9665 4.75 12 4.75C11.0335 4.75 10.25 3.9665 10.25 3C10.25 2.0335 11.0335 1.25 12 1.25ZM6 1.75C5.30964 1.75 4.75 2.30964 4.75 3C4.75 3.69036 5.30964 4.25 6 4.25C6.69036 4.25 7.25 3.69036 7.25 3C7.25 2.30964 6.69036 1.75 6 1.75ZM12 2.75C11.8619 2.75 11.75 2.86193 11.75 3C11.75 3.13807 11.8619 3.25 12 3.25C12.1381 3.25 12.25 3.13807 12.25 3C12.25 2.86193 12.1381 2.75 12 2.75Z"
    fill="currentColor"
  />
</svg>

<svg xmlns="http://www.w3.org/2000/svg" width="16" height="16" fill="none" data-fui-icon="true" viewBox="0 0 16 16"><path fill="currentColor" d="M11.877 5.25c1.683 0 3.138 1.042 3.664 2.533l.09.293c.079.298.119.609.119.924a.75.75 0 0 1-1.5 0c0-.252-.043-.493-.121-.71l-.001-.005-.065-.162c-.354-.796-1.19-1.373-2.186-1.373-.9 0-1.672.476-2.073 1.16q.476.48.835 1.06a.75.75 0 1 1-1.278.786c-.729-1.187-1.963-1.964-3.356-2.004l-.28.002c-2.181.091-3.975 2.12-3.975 4.592 0 .538.403.904.818.904h6.687a.75.75 0 0 1 0 1.5H2.568C1.25 14.75.25 13.636.25 12.346c0-3.133 2.292-5.96 5.412-6.091a5.4 5.4 0 0 1 2.95.73 3.9 3.9 0 0 1 3.265-1.735m1.123 4a.75.75 0 0 1 .75.75v1.25H15a.75.75 0 0 1 0 1.5h-1.25V14a.75.75 0 0 1-1.5 0v-1.25H11a.75.75 0 0 1 0-1.5h1.25V10a.75.75 0 0 1 .75-.75m-7-9a2.75 2.75 0 1 1 0 5.5 2.75 2.75 0 0 1 0-5.5m6 1a1.75 1.75 0 1 1 0 3.5 1.75 1.75 0 0 1 0-3.5m-6 .5a1.25 1.25 0 1 0 0 2.5 1.25 1.25 0 0 0 0-2.5m6 1a.25.25 0 1 0 0 .5.25.25 0 0 0 0-.5"/></svg>
